src/icons/svgs/24/frown.svg

<svg width="24" height="24" viewBox="0 0 24 24" fill="none" xmlns="http://www.w3.org/2000/svg">
<path d="M12 13.875C10.4297 13.875 8.95391 14.5684 7.94531 15.7746C7.61418 16.1699 7.66621 16.7609 8.06355 17.093C8.46551 17.4201 9.05223 17.3713 9.38816 16.9709C10.0352 16.1953 10.9883 15.75 11.9648 15.75C12.9414 15.75 13.9289 16.1895 14.577 16.9707C14.8939 17.3516 15.4805 17.4395 15.9016 17.0928C16.2988 16.7607 16.3508 16.1701 16.0198 15.7744C15.0117 14.5703 13.5703 13.875 12 13.875ZM8.83984 11.375C9.53516 11.375 10.0906 10.8184 10.0906 10.125C10.0906 9.43164 9.53516 8.875 8.83984 8.875C8.14922 8.875 7.59023 9.43164 7.59023 10.125C7.59023 10.8184 8.18359 11.375 8.83984 11.375ZM12 2C6.47656 2 2 6.47656 2 12C2 17.5234 6.47656 22 12 22C17.5234 22 22 17.5234 22 12C22 6.47656 17.5234 2 12 2ZM12 20.125C7.51953 20.125 3.875 16.4801 3.875 12C3.875 7.51992 7.51953 3.875 12 3.875C16.4805 3.875 20.125 7.51992 20.125 12C20.125 16.4801 16.4805 20.125 12 20.125ZM15.125 8.875C14.4297 8.875 13.8742 9.43164 13.8742 10.125C13.8742 10.8184 14.4297 11.375 15.125 11.375C15.8156 11.375 16.3746 10.8184 16.3746 10.125C16.3746 9.43164 15.8164 8.875 15.125 8.875Z" fill="black"/>
</svg>

<svg width="24" height="24" viewBox="0 0 24 24" xmlns="http://www.w3.org/2000/svg">
    <path d="M12 13.875c-1.57 0-3.046.693-4.055 1.9a.936.936 0 0 0 .119 1.318.944.944 0 0 0 1.324-.122 3.376 3.376 0 0 1 2.577-1.221c.976 0 1.964.44 2.612 1.22a.936.936 0 1 0 1.443-1.196c-1.008-1.204-2.45-1.899-4.02-1.899zm-3.16-2.5c.695 0 1.25-.557 1.25-1.25s-.555-1.25-1.25-1.25c-.69 0-1.25.557-1.25 1.25s.594 1.25 1.25 1.25zM12 2C6.477 2 2 6.477 2 12s4.477 10 10 10 10-4.477 10-10S17.523 2 12 2zm0 18.125c-4.48 0-8.125-3.645-8.125-8.125S7.52 3.875 12 3.875 20.125 7.52 20.125 12 16.48 20.125 12 20.125zm3.125-11.25c-.695 0-1.25.557-1.25 1.25s.555 1.25 1.25 1.25c.69 0 1.25-.557 1.25-1.25s-.559-1.25-1.25-1.25z"/>
</svg>
